src/icon-mask.svg

<svg width="49" height="46" viewBox="0 0 49 46" fill="none" xmlns="http://www.w3.org/2000/svg">
    <g>
        <path d="M49 32.7794L27.9041 0L23.4437 2.8415L24.8036 4.95561L5.54232 31.0268L4.46465 29.3508L0.00427246 32.1923L7.87729 44.4261L12.3377 41.5846L11.2899 39.9554L17.9826 38.6027C18.0297 38.6836 18.0724 38.7644 18.1195 38.8452L20.2791 42.1419C21.8015 44.4516 24.3503 45.8852 27.1258 45.9957C29.8969 46.1063 32.5569 44.8813 34.2632 42.6991C35.9653 40.5212 36.5084 37.6627 35.7258 35.0168L39.6601 34.2214L43.184 33.5068L44.5482 35.6251L49.0085 32.7836L49 32.7794ZM12.389 30.6397L27.8741 9.69003L30.8035 14.2458L12.389 30.6397ZM29.4522 40.5339C27.7801 41.5931 25.5563 41.1082 24.4872 39.445L23.2726 37.5308L30.7907 36.008C31.5476 37.6371 30.9746 39.5726 29.4522 40.5339Z" fill="#C5D0D9"/>
    </g>
</svg>

<svg xmlns="http://www.w3.org/2000/svg" width="49" height="46" fill="none" viewBox="0 0 49 46"><path fill="#C5D0D9" d="M49 32.78 27.904 0l-4.46 2.841 1.36 2.115-19.262 26.07-1.077-1.675-4.46 2.841 7.872 12.234 4.46-2.841-1.047-1.63 6.693-1.352c.047.08.09.161.136.242l2.16 3.297a8.604 8.604 0 0 0 6.847 3.854 8.624 8.624 0 0 0 7.137-3.297 8.537 8.537 0 0 0 1.463-7.682l3.934-.796 3.524-.714 1.364 2.118 4.46-2.841-.008-.005Zm-36.611-2.14L27.874 9.69l2.93 4.556L12.389 30.64Zm17.063 9.894a3.611 3.611 0 0 1-4.965-1.089l-1.214-1.914 7.518-1.523a3.572 3.572 0 0 1-1.339 4.526Z"/></svg>
